X:1
T:Title
%%score { 1 | ( 2 3 ) }
L:1/8
Q:1/4=100
M:4/4
K:Eb
V:1 treble nm="Grand Piano"
V:2 bass 
V:3 bass 
V:1
 [EB]2 [FB]2 G2 E2 | [EA]2 [Ec]2 [EB]4 | [FB]2 [DB]2 G2 E2 | [EA]2 [Ec]2 [EB]4 | %4
w: Johann~Balthazar~Reimann * * *||||
 [Ee]2 [EB]2 [Ec]2 [DB]2 | [EA]2 [EG]2 [DF]4 | [Ee]2 [EB]2 [Ec]2 [DB]2 | [EA]2 [EG]2 [DF]4 | %8
w: ||||
 [FA]2 [EG]2 cd e2 | G2 .[B,EF]2 [G,E]4 | [CFA]2 [CEG]2 .[CEc]2 [B,Ee]2 | %11
w: |||
[M:8/4] [B,EG]2 .[B,EF]2 [G,E]4 z8 |[M:4/4] [A,CE]4 [G,B,E]4 |] %13
w: ||
V:2
 [E,G,]2 [D,B,]2 [E,B,E]2 [E,G,]2 | [C,A,]2 [A,,A,]2 [E,G,]4 | [D,B,]2 [B,,B,]2 [E,B,E]2 [E,G,]2 | %3
 [C,A,]2 [A,,A,]2 [E,G,]4 | [C,G,]2 [E,G,]2 [A,,A,]2 [B,,F,]2 | [C,A,]2 [E,B,]2 [B,,B,]4 | %6
 [C,G,]2 [E,G,]2 [A,,A,]2 [B,,F,]2 | [C,A,]2 [E,B,]2 [B,,B,]4 | [F,C]2 [C,C]2 [A,CE]2 [G,B,E]2 | %9
 [B,E]2 z D C,4 | F,,2 C,2 z[K:treble] d[K:bass] G,,2 |[M:8/4] .B,,3 D E,4 z8 |[M:4/4] A,,4 E,4 |] %13
V:3
 x8 | x8 | x8 | x8 | x8 | x8 | x8 | x8 | x8 | z2 B,,2 z4 | z4 A,,2[K:treble][K:bass] z2 | %11
[M:8/4] z2 B,,2 z4 z8 |[M:4/4] x8 |] %13

